packages/ui-solid/icons/person_remove_28.svg

<svg width="28" height="28" viewBox="0 0 28 28" fill="none" xmlns="http://www.w3.org/2000/svg">
<path fill-rule="evenodd" clip-rule="evenodd" d="M10.8041 4.52515C8.92778 4.52515 7.38136 6.07319 7.38136 8.01435C7.38136 9.95551 8.92778 11.5035 10.8041 11.5035C12.6803 11.5035 14.2268 9.95551 14.2268 8.01435C14.2268 6.07319 12.6803 4.52515 10.8041 4.52515ZM5.38136 8.01435C5.38136 4.99687 7.79517 2.52515 10.8041 2.52515C13.813 2.52515 16.2268 4.99687 16.2268 8.01435C16.2268 11.0318 13.813 13.5036 10.8041 13.5036C7.79517 13.5036 5.38136 11.0318 5.38136 8.01435ZM16.7582 17.4781C16.4207 18.0666 16.2268 18.7522 16.2268 19.4868C16.2268 21.7034 17.9932 23.4748 20.1409 23.4748C20.8643 23.4748 21.5422 23.2753 22.1248 22.9254L16.7582 17.4781ZM15.9544 15.2572C14.8855 16.3426 14.2268 17.8399 14.2268 19.4868C14.2268 22.7797 16.8606 25.4748 20.1409 25.4748C21.7787 25.4748 23.2601 24.7996 24.328 23.7156C25.3957 22.6319 26.055 21.1352 26.055 19.4868C26.055 16.1938 23.4211 13.4988 20.1409 13.4988C18.5011 13.4988 17.0228 14.1722 15.9544 15.2572ZM18.1574 16.0486L23.5233 21.4952C23.8612 20.9061 24.055 20.2204 24.055 19.4868C24.055 17.2701 22.2885 15.4988 20.1409 15.4988C19.4191 15.4988 18.7404 15.6988 18.1574 16.0486ZM3.67057 15.7642C4.68874 14.8102 5.93298 14.4964 6.87277 14.4964H12.2509C12.8031 14.4964 13.2509 14.9441 13.2509 15.4964C13.2509 16.0486 12.8031 16.4964 12.2509 16.4964H6.87277C6.33834 16.4964 5.61694 16.6813 5.03803 17.2237C4.48141 17.7452 3.94149 18.7054 3.94149 20.4844C3.94149 21.0366 3.49377 21.4844 2.94149 21.4844C2.38921 21.4844 1.94149 21.0366 1.94149 20.4844C1.94149 18.2729 2.6301 16.7391 3.67057 15.7642Z" fill="#007AFF"/>
</svg>

<svg xmlns="http://www.w3.org/2000/svg" width="28" height="28" fill="none"><path fill="currentColor" fill-rule="evenodd" d="M10.804 4.525c-1.876 0-3.423 1.548-3.423 3.49 0 1.94 1.547 3.489 3.423 3.489s3.423-1.548 3.423-3.49c0-1.94-1.547-3.489-3.423-3.489m-5.423 3.49c0-3.018 2.414-5.49 5.423-5.49s5.423 2.472 5.423 5.49c0 3.017-2.414 5.489-5.423 5.489s-5.423-2.472-5.423-5.49m11.377 9.463a4 4 0 0 0-.531 2.009c0 2.216 1.766 3.988 3.914 3.988.723 0 1.401-.2 1.984-.55zm-.804-2.22a6 6 0 0 0-1.727 4.229c0 3.293 2.634 5.988 5.914 5.988 1.638 0 3.12-.675 4.187-1.76a6 6 0 0 0 1.727-4.228c0-3.293-2.634-5.988-5.914-5.988-1.64 0-3.118.673-4.187 1.758m2.203.79 5.366 5.447a4 4 0 0 0 .532-2.008c0-2.217-1.767-3.988-3.914-3.988-.722 0-1.4.2-1.984.55m-14.486-.284a4.73 4.73 0 0 1 3.202-1.268h5.378a1 1 0 0 1 0 2H6.873a2.73 2.73 0 0 0-1.835.728c-.557.521-1.097 1.481-1.097 3.26a1 1 0 0 1-2 0c0-2.211.69-3.745 1.73-4.72" clip-rule="evenodd"/></svg>
